X: 6889
T: Chasing Down The Hilltops
R: reel
M: 4/4
K: Gminor
|"Gm" DG,B,D "Cm" CDFC|"Gm" DG,B,D "Cm" CDGF|"Gm" DB,CD DCDD|"A♭maj7" C2 B,C EF_AG|
"Gm" DG,B,D "Cm" CDFC|"Gm" DG,B,D "G♭dim" CEAG|"Gm" DB,CD "Cm" EDCE|1 "Gm/B♭" DCB,D "D7/A" CA,B,C:|2 "D7" DCB,A, "Gm" G,4||
|:"F" c4 c2-cB|cABG AGFD|"Gm" G3F GDFG|AGFD GABd|
[1 "F" c4 c2-cB|cABG AGFD|"Gm" G2 GF GABc|dgfd cBGF:|
[2 "F" c4 cB c2|"Dm" d4 c2 B2|"E♭" G4- GFDF|"Cm" G2 F2 DCB,C||

